X:106028724048744
T:3-11-7-2-4-8-2-8-11-7-11-8-10-2-5-6
%%setfont-1 Courier-Bold 8
T:$1K.516f::32:87:27:41:153:133:11:127:102:71:31:175:137:49:52:93::$0
T:$1Perm. No.: 106028724048744$0
M:3/8
L:1/8
Q:1/8=111
%%staves [1 2]
V:1 clef=treble
V:2 clef=bass
K:C
%1
[V:1]|: Gce |\
[V:2]|: [E,2C,2]z |\
%2
[V:1] gce |\
[V:2] [E,2C,2][G,C,] |\
%3
[V:1] f/e/f/d/c/B/ |\
[V:2] [B,2G,2]z |\
%4
[V:1] c/B/c/e/G |\
[V:2] [E,2C,2]z |\
%5
[V:1] d/A/^f/d/a/f/ |\
[V:2] C,2z |\
%6
[V:1] dg/d/B/d/ |\
[V:2] [G,2B,,2]z |\
%7
[V:1] e/c/B/A/G/^F/ \
[V:2] C,D,D,, \
%8a
[V:1]|1 [g2d2B2G2]z :|2
[V:2]|1 G,,G,/=F,/E,/D,/ :|2
%8b
[V:1] [g2d2B2G2]z |:\
[V:2] G,,B,/G,/^F,/E,/ |:\
%9
[V:1] ^f/d/A f |\
[V:2] [A,2C,2][A,C,] |\
%10
[V:1] g/b/d'/b/g |\
[V:2] [D,2B,,2][D,B,,] |\
%11
[V:1] e/c/G e |\
[V:2] [G,2C,2][G,C,] |\
%12
[V:1] e/c/B/d/g |\
[V:2] G,G,,z |\
%13
[V:1] cGe |\
[V:2] [E,/C,/]G,/[E,/C,/]G,/[E,/C,/]G,/ |\
%14
[V:1] (ecG) |\
[V:2] [E,/C,/]G,/[E,/C,/]G,/[E,/C,/]G,/ |\
%15
[V:1] (d/^c/)d/f/G/B/ |\
[V:2] F,2G, |\
%16
[V:1] c2z :|]
[V:2] C,G,,C,, :|]
